X: 3681
T: Billy First's
R: jig
M: 6/8
K: Dmajor
|:A3 AFA|Bcd ede|fef fgg|fed edB|
A3 AFA|Bcd ede|fef fgg|1 edc dcB:|2 edc d2e||
|:f3 def|fgg fed|e3 ede|a3 gfe|
f3 def|fgg fed|e3 ede|1 edc d2e:|2 edc dcB||
|:A3 AFA|Bcd ede|fdd gdd|fed edB|
A3 AFA|Bcd ede|fef fgg|edc dcB|
A3 AFD|Bcd ede|faa fgg|fed edB|
A3 AFA|Bcd ede|fef fgg|edc d2e||
|:f3 def|fgg fed|e3 A2z|a3 gfe|
f3 def|fgg fed|e3 ede|edc d2e:|

